src/assets/lock-icon.svg

<svg width="22" height="27" fill="none" xmlns="http://www.w3.org/2000/svg"><path d="M17.875 9.45v-2.7C17.875 2.97 14.85 0 11 0S4.125 2.97 4.125 6.75v2.7C1.788 9.45 0 11.205 0 13.5v9.45C0 25.245 1.788 27 4.125 27h13.75C20.212 27 22 25.245 22 22.95V13.5c0-2.295-1.788-4.05-4.125-4.05zm-11-2.7C6.875 4.455 8.662 2.7 11 2.7s4.125 1.755 4.125 4.05v2.7h-8.25v-2.7zm5.5 13.5c0 .81-.55 1.35-1.375 1.35s-1.375-.54-1.375-1.35V16.2c0-.81.55-1.35 1.375-1.35s1.375.54 1.375 1.35v4.05z" fill="#CACACA"/></svg>

<svg width="22" height="27" viewBox="0 0 22 27" fill="none" xmlns="http://www.w3.org/2000/svg">
<path d="M17.875 9.45V6.75C17.875 2.97 14.85 0 11 0C7.15 0 4.125 2.97 4.125 6.75V9.45C1.7875 9.45 0 11.205 0 13.5V22.95C0 25.245 1.7875 27 4.125 27H17.875C20.2125 27 22 25.245 22 22.95V13.5C22 11.205 20.2125 9.45 17.875 9.45ZM6.875 6.75C6.875 4.455 8.6625 2.7 11 2.7C13.3375 2.7 15.125 4.455 15.125 6.75V9.45H6.875V6.75ZM12.375 20.25C12.375 21.06 11.825 21.6 11 21.6C10.175 21.6 9.625 21.06 9.625 20.25V16.2C9.625 15.39 10.175 14.85 11 14.85C11.825 14.85 12.375 15.39 12.375 16.2V20.25Z" fill="#CACACA"/>
</svg>
